!!!!SEGMENT: pl-kk--kk-i-15--006_anonim--exaudisti-domine.krn
!!!cenid: 16xx:1123
!!!COM: Anonim
!!!COM-rismID: pe30004985
!!!CDT:
!!!CNT:
!!!OTL: Exaudisti Domine
!!!PDT:
!!!AGN: Sacred
!!!SMS-siglum: PL-Kk
!!!SMS-shelfmark: Kk.I.15
!!!SMS-shelfwork: 006 W
!!!SMS-variant:
!!!SMS-altvar:
!!!NIFC-rismSourceID: 1001146840
!!!NIFC-islandoraID: pl-kk:2631
!!!URL-pdf-islandora: https://repozytorium.nifc.pl/islandora/object/pl-kk%3A2631/datastream/PDF/view
!!!URL-scan: https://polish.musicsources.pl/pl/lokalizacje/galeria/rekopisy/5777 @EN{Scan on Polish Music Sources Website} @PL{Skany w portalu Dziedzictwo Muzyki Polskiej w otwartym dostępie}
!!!ONB-nifc: UWAGA: C (skan 0005), A (skan 0023), T (skan 0040), B (skan 0058). Następny motet: Ave Sanctissima Maria
!!!AIN: 1 alto 1 empty 1 tenor 1 vox
!!!key:
**kern	**text	**kern	**text	**kern	**text	**kern	**text
*part4	*part4	*part3	*part3	*part2	*part2	*part1	*part1
*staff4	*staff4	*staff3	*staff3	*staff2	*staff2	*staff1	*staff1
*Iempty	*	*Itenor	*	*Ialto	*	*Ivox	*
*I"Baſso	*	*I"[Tenore.]	*	*I"[Alto]	*	*I"[Canto.]	*
*I'B	*	*I'[T]	*	*I'[A]	*	*I'[S]	*
*clefF4	*	*clefC4	*	*clefC4	*	*clefC3	*
*k[b-]	*	*k[b-]	*	*k[b-]	*	*k[b-]	*
*g:	*	*g:	*	*g:	*	*g:	*
*M2/1	*	*M2/1	*	*M2/1	*	*M2/1	*
*met(C|)	*	*met(C|)	*	*met(C|)	*	*met(C|)	*
=1-	=1-	=1-	=1-	=1-	=1-	=1-	=1-
!!LO:TX:t=P:problem:all\right:global
!	!	!LO:TX:t=P:problem=kreska pseudotaktowa	!	!	!	!	!
0r	.	1r	.	2.G	Ex-	2r	.
*	*	*	*	*	*	*2\right	*
.	.	.	.	.	.	2.d	Ex-
!	!	!	!	!LO:TX:t=P:problem=kreska pseudotaktowa	!	!	!
.	.	.	.	4G	-au-	.	.
*	*	*2\right	*	*2\right	*	*	*
.	.	2.d	Ex-	2B-	-di-	.	.
.	.	.	.	.	.	4d	-au-
!	!	!	!	!LO:TX:t=P:problem=kreska pseudotaktowa	!	!LO:TX:t=P::problem=kreska pseudotaktowa&colon;między nutą a kropką	!
.	.	.	.	2B-	-sti	2.f	-di-
!	!	!LO:TX:t=P:problem=kreska pseudotaktowa	!	!	!	!	!
.	.	4d	-au-	.	.	.	.
=2-	=2-	=2-	=2-	=2-	=2-	=2-	=2-
!LO:TX:t=P:problem=kreska pseudotaktowa	!	!	!	!	!	!	!
1r	.	2c	-di-	2.A	Do-	.	.
.	.	.	.	.	.	4f	-sti
!	!	!LO:TX:t=P:problem=kreska pseudotaktowa	!	!	!	!	!
.	.	2c	-sti	.	.	2.e	Do-
.	.	.	.	4A	-mi-	.	.
!	!	!	!	!LO:TX:t=P:problem=kreska pseudotaktowa	!	!	!
2r	.	2.B-	Do-	1G	-ne	.	.
.	.	.	.	.	.	4e	-mi-
*2\right	*	*	*	*	*	*	*
!LO:TX:t=P::problem=kreska pseudotaktowa&colon;między nutą a kropką	!	!	!	!	!	!LO:TX:t=P:problem=kreska pseudotaktowa	!
2.G	Ex-	.	.	.	.	2d	-ne
.	.	4B-	-mi-	.	.	.	.
=3-	=3-	=3-	=3-	=3-	=3-	=3-	=3-
!	!	!LO:TX:t=P:problem=kreska pseudotaktowa	!	!	!	!	!
.	.	1A	-ne	1r	.	2r	.
4G	-au-	.	.	.	.	.	.
*	*	*	*	*	*ij	*	*ij
!LO:TX:t=P::problem=kreska pseudotaktowa&colon;między nutą i kropką	!	!	!	!	!	!	!
2.F	-di-	.	.	.	.	2.a	Ex-
.	.	1r	.	2.c	Ex-	.	.
4F	-sti	.	.	.	.	4a	-au-
!	!	!	!	!	!	!LO:TX:t=P::problem=kreska pseudotaktowa&colon;między nutą i kropką	!
2.E-X	Do-	.	.	.	.	2.g	-di-
!	!	!	!	!LO:TX:t=P:problem=kreska pseudotaktowa	!	!	!
.	.	.	.	4c	-au-	.	.
=4-	=4-	=4-	=4-	=4-	=4-	=4-	=4-
.	.	2r	.	2B-	-di-	.	.
8DL	.	.	.	.	.	4g	-sti
8CJ	.	.	.	.	.	.	.
!LO:TX:t=P::problem=kreska pseudotaktowa&colon;między nutą i kropką	!	!	!	!LO:TX:t=P:problem=kreska pseudotaktowa	!	!LO:TX:t=P::problem=kreska pseudotaktowa&colon;między nutą i kropką	!
2.D/	.	1d	O-	2A/	-sti	2.f	Do-
.	.	.	.	2.A/	Do-	.	.
4EnyX	.	.	.	.	.	8eL	.
.	.	.	.	.	.	8dJ	.
!LO:TX:t=P:problem=kreska pseudotaktowa	!	!	!	!	!	!	!
2F	.	1c	-ra-	.	.	4c	.
!	!	!	!	!LO:TX:t=P:problem=kreska pseudotaktowa	!	!	!
.	.	.	.	4A/	-mi-	4d	.
=5-	=5-	=5-	=5-	=5-	=5-	=5-	=5-
2.G	.	.	.	2G	-ne	2e-X	.
*	*	*	*	*	*Xij	*	*
*	*	*	*	*	*	*custos:d	*
!	!	!LO:TX:t=P:problem=kreska pseudotaktowa	!	!	!	!	!
!	!	!	!	!	!	!LO:TX:t=P:problem=kreska pseudotaktowa	!
.	.	2B-	-ti-	2G	O-	2d	-mi-
4G	-mi-	.	.	.	.	.	.
*custos:GG	*	*	*	*	*	*	*
!LO:TX:t=P:problem=kreska pseudotaktowa	!	!	!	!	!	!LO:LB:g=original	!
!	!	!	!	!	!	!LO:TX:t=P:problem=kreska pseudotaktowa	!
1D	-ne	1A	-o-	2G	-ra-	0d	-ne
*	*	*	*	*	*	*	*Xij
!	!	!	!	!LO:TX:t=P:problem=kreska pseudotaktowa	!	!	!
.	.	.	.	2F	-ti-	.	.
=6-	=6-	=6-	=6-	=6-	=6-	=6-	=6-
*	*ij	*	*	*	*	*	*
!LO:LB:g=original	!	!LO:TX:t=P:problem=kreska pseudotaktowa	!	!	!	!	!
2.GG	Ex-	1G	-nem	1B-	-o-	.	.
4GG	-au-	.	.	.	.	.	.
*	*	*	*	*custos:d	*	*	*
!	!	!	!	!LO:TX:t=P:problem=kreska pseudotaktowa	!	!	!
2BB-	-di-	2r	.	1B-	-nem	2r	.
!LO:TX:t=P:problem=kreska pseudotaktowa	!	!	!	!	!	!	!
2BB-	-sti	1d	Ex-	.	.	2d	O-
=7-	=7-	=7-	=7-	=7-	=7-	=7-	=7-
!	!	!	!	!LO:TX:t=P:problem=kreska pseudotaktowa	!	!	!
!	!	!	!	!LO:LB:g=original	!	!	!
2.AA	Do-	.	.	1r	.	2eny	-ra-
!	!	!LO:TX:t=P:problem=kreska pseudotaktowa	!	!	!	!LO:TX:t=P:problem=kreska pseudotaktowa	!
.	.	2c	-au-	.	.	2f	-ti-
4AA	-mi-	.	.	.	.	.	.
*	*	*custos:B	*	*	*	*	*
!LO:TX:t=P:problem=kreska pseudotaktowa	!	!	!	!	!	!	!
1GG	-ne	2B-	-di-	2.d	Se-	2.g	-o-
*	*Xij	*	*	*	*	*	*
!	!	!LO:TX:t=P:problem=kreska pseudotaktowa	!	!	!	!	!
!	!	!LO:LB:g=original	!	!	!	!	!
.	.	2B-	-sti	.	.	.	.
.	.	.	.	4d	-rui	4g	-nem
=8-	=8-	=8-	=8-	=8-	=8-	=8-	=8-
1rD	.	2.A/	Do-	4c#X	.	2e	ser-
.	.	.	.	2d	.	.	.
!	!	!	!	!	!	!LO:TX:t=P:problem=kreska pseudotaktowa	!
.	.	.	.	.	.	2f	-ui
!	!	!	!	!LO:TX:t=P:problem=kreska pseudotaktowa	!	!	!
.	.	4A/	-mi-	4c#X	Tu-	.	.
!	!	!LO:TX:t=P:problem=kreska pseudotaktowa	!	!LO:TX:t=P:problem=kreska pseudotaktowa	!	!	!
2rC	.	1G	-ne	1d	-i	1g	Tu-
!LO:TX:t=P:problem=kreska pseudotaktowa	!	!	!	!	!	!	!
2G	O-	.	.	.	.	.	.
=9-	=9-	=9-	=9-	=9-	=9-	=9-	=9-
!	!	!	!	!	!	!LO:TX:t=P:problem=kreska pseudotaktowa	!
2G	-ra-	0r	.	2r	.	1d	-i
!	!	!	!	!LO:TX:t=P:problem=kreska pseudotaktowa	!	!	!
!	!	!	!	!LO:N:acc=#	!	!	!
2G	-ti-	.	.	2Bn	O-	.	.
2F	-o-	.	.	2cny	-ra-	2r	.
!LO:TX:t=P:problem=kreska pseudotaktowa	!	!	!	!LO:TX:t=P:problem=kreska pseudotaktowa	!	!	!
2BB-	-nem	.	.	2d	-ti-	1f	Ex-
=10-	=10-	=10-	=10-	=10-	=10-	=10-	=10-
!	!	!LO:TX:t=P:problem=kreska pseudotaktowa	!	!	!	!	!
2.B-	ſer-	1r	.	2.d	-o-	.	.
!	!	!	!	!	!	!LO:TX:t=P:problem=kreska pseudotaktowa	!
.	.	.	.	.	.	2f	-au-
!	!	!	!	!LO:TX:t=P:problem=kreska pseudotaktowa	!	!	!
4A	.	.	.	4c	-nem	.	.
2G	.	2r	.	2B-y	Se-	2e	-di-
*custos:E	*	*	*	*	*	*	*
!LO:TX:t=P:problem=kreska pseudotaktowa	!	!	!	!	!	!	!
!	!	!	!	!LO:TX:t=P:problem=kreska pseudotaktowa	!	!	!
2F	-ui	2A/	O-	2A/	-rui	2d	-sti
=11-	=11-	=11-	=11-	=11-	=11-	=11-	=11-
!LO:LB:g=original	!	!	!	!	!	!	!
1E-X	Tu-	2B-	-ra-	1G	Tu-	2d	Do-
!	!	!LO:TX:t=P:problem=kreska pseudotaktowa	!	!	!	!LO:TX:t=P:problem=kreska pseudotaktowa	!
.	.	2G	-ti-	.	.	2c	-mi-
*	*	*	*	*	*	*custos:g	*
!	!	!	!	!	!	!LO:TX:t=P:problem=kreska pseudotaktowa	!
!LO:TX:t=P:problem=kreska pseudotaktowa	!	!	!	!LO:TX:t=P:problem=kreska pseudotaktowa	!	!	!
1D	-i	2G	-o-	1A	-i	1d	-ne
!	!	!LO:TX:t=P:problem=kreska pseudotaktowa	!	!	!	!	!
.	.	2F#X	-nem	.	.	.	.
=12-	=12-	=12-	=12-	=12-	=12-	=12-	=12-
!	!	!	!	!	!	!LO:LB:g=original	!
0r	.	2G	Se-	2.B-	Ex-	2r	.
!	!	!LO:TX:t=P:problem=kreska pseudotaktowa	!	!	!	!LO:TX:t=P:problem=kreska pseudotaktowa	!
.	.	2E-X	-rui	.	.	2g	O-
.	.	.	.	4c	-au-	.	.
!	!	!LO:TX:t=P:problem=kreska pseudotaktowa	!	!	!	!	!
.	.	1D	Tu-	2d	-di-	2g	-ra-
!	!	!	!	!LO:TX:t=P:problem=kreska pseudotaktowa	!	!	!
.	.	.	.	2A/	-sti	2f#X	-ti-
=13-	=13-	=13-	=13-	=13-	=13-	=13-	=13-
2.GG	Ex-	2G,<	-i	2B-	Do-	2g	-o-
*	*	*	*	*custos:A	*	*	*
!	!	!	!	!	!	!LO:TX:t=P:problem=kreska pseudotaktowa	!
.	.	1G	Ex-	2B-	-mi-	2e-X	-nem
4GG	-au-	.	.	.	.	.	.
!	!	!	!	!LO:LB:g=original	!	!	!
2D/	-di-	.	.	2A/	-ne	2d	se-
!	!	!	!	!LO:TX:t=P:problem=kreska pseudotaktowa	!	!	!
!LO:TX:t=P:problem=kreska pseudotaktowa	!	!LO:TX:t=P:problem=kreska pseudotaktowa	!	!LO:N:acc=#	!	!LO:TX:t=P:problem=kreska pseudotaktowa	!
2D/	-sti	2F#X	-au-	2Bn	Se-	2d	-ui
=14-	=14-	=14-	=14-	=14-	=14-	=14-	=14-
2.C	Do-	2G	-di-	2c	-rui	1e-X	Tu-
*	*	*custos:B	*	*	*	*	*
!	!	!LO:TX:t=P:problem=kreska pseudotaktowa	!	!	!	!	!
!	!	!	!	!LO:TX:t=P:problem=kreska pseudotaktowa	!	!	!
.	.	2c	-sti	2G	O-	.	.
4C	-mi-	.	.	.	.	.	.
!LO:TX:t=P:problem=kreska pseudotaktowa	!	!LO:LB:g=original	!	!	!	!LO:TX:t=P:problem=kreska pseudotaktowa	!
1GG	-ne	2.B-	Do-	2.G	-ra-	1d	-i
!	!	!LO:TX:t=P:problem=kreska pseudotaktowa	!	!	!	!	!
.	.	4c	.	4G	-ti-	.	.
=15-	=15-	=15-	=15-	=15-	=15-	=15-	=15-
*	*ij	*	*	*	*	*	*
2.G	Ex-	2.d	mi-	2.B-y	-o-	2r	.
.	.	.	.	.	.	2.d	Ex-
!	!	!	!	!LO:TX:t=P:problem=kreska pseudotaktowa	!	!	!
4G	-au-	4d	-ne	4c	.	.	.
!	!	!	!	!LO:TX:t=P:problem=kreska pseudotaktowa	!	!	!
2B-	-di-	2G#X,<	.	1d	-nem	.	.
.	.	.	.	.	.	4d	-au-
!LO:TX:t=P:problem=kreska pseudotaktowa	!	!LO:TX:t=P:problem=kreska pseudotaktowa	!	!	!	!LO:TX:t=P:problem=kreska pseudotaktowa	!
2B-	-sti	2d	O-	.	.	[y2fny	-di-
=16-	=16-	=16-	=16-	=16-	=16-	=16-	=16-
!	!	!	!	!	!	!LO:N:xstem:cue	!
2.A	Do-	2d	-ra-	1r	.	4f]	.
.	.	.	.	.	.	8enyL	-sti
.	.	.	.	.	.	8dJ	.
.	.	2c#X	-ti-	.	.	4e	.
!	!	!	!	!	!	!LO:TX:t=P:problem=kreska pseudotaktowa	!
4A	-mi-	.	.	.	.	4f	.
*custos:G	*	*	*	*	*	*	*
!LO:TX:t=P:problem=kreska pseudotaktowa	!	!	!	!	!	!	!
1G	-ne	2d	-o-	2r	.	2.g	Do-
*	*Xij	*	*	*	*	*	*
!	!	!	!	!LO:TX:t=P:problem=kreska pseudotaktowa	!	!	!
!	!	!LO:TX:t=P:problem=kreska pseudotaktowa	!	!LO:N:acc=#	!	!	!
.	.	2d	-nem	2Bn	O-	.	.
.	.	.	.	.	.	4g	-mi-
=17-	=17-	=17-	=17-	=17-	=17-	=17-	=17-
*	*	*	*	*	*	*custos:g	*
!	!	!	!	!	!	!LO:TX:t=P:problem=kreska pseudotaktowa	!
!LO:LB:g=original	!	!	!	!	!	!	!
2r	.	2B-	Se-	2d	-ra-	1d	-ne
!LO:TX:t=P:problem=kreska pseudotaktowa	!	!LO:TX:t=P:problem=kreska pseudotaktowa	!	!	!	!	!
2G	O-	2B-	-rui	2d	-ti-	.	.
!	!	!	!	!LO:TX:t=P:problem=kreska pseudotaktowa	!	!LO:TX:t=P:problem=kreska pseudotaktowa	!
!	!	!	!	!	!	!LO:LB:g=original	!
2G	-ra-	1A	Tu-	1d	-o-	1r	.
2F	-ti-	.	.	.	.	.	.
=18-	=18-	=18-	=18-	=18-	=18-	=18-	=18-
!	!	!LO:TX:t=P:problem=kreska pseudotaktowa	!	!	!	!	!
2B-	-o-	1Gny	-i	2d,<	-nem	2r	.
!LO:TX:t=P:problem=kreska pseudotaktowa	!	!	!	!	!	!	!
2B-	-nem	.	.	1d	Se-	2g	Ut
2.A	ſe-	1r	.	.	.	2g	ae-
!	!	!	!	!LO:TX:t=P:problem=kreska pseudotaktowa	!	!LO:TX:t=P:problem=kreska pseudotaktowa	!
.	.	.	.	2c	-rui	2f#X	-di-
4A	-rui	.	.	.	.	.	.
=19-	=19-	=19-	=19-	=19-	=19-	=19-	=19-
1G	Tu-	2.d	Ut	1B-y	Tu-	2.g	-fi-
!	!	!LO:TX:t=P:problem=kreska pseudotaktowa	!	!	!	!	!
.	.	4d	ae-	.	.	4g	-ca-
!LO:TX:t=P:problem=kreska pseudotaktowa	!	!	!	!LO:TX:t=P:problem=kreska pseudotaktowa	!	!	!
1D	-i	2d	-di-	1A	-i	2fny	-rem
.	.	2d	-fi-	.	.	2f	Tem-
=20-	=20-	=20-	=20-	=20-	=20-	=20-	=20-
*	*	*custos:C	*	*	*	*	*
00r	.	2cny	-ca-	1r	.	1e-X	-plum
!	!	!LO:TX:t=P:problem=kreska pseudotaktowa	!	!	!	!	!
!	!	!LO:LB:g=original	!	!	!	!	!
.	.	2c	-rem	.	.	.	.
*	*	*	*	*custos:d	*	*	*
!	!	!	!	!	!	!LO:TX:t=P:problem=kreska pseudotaktowa	!
.	.	1B-	Tem-	2r	.	1d	.
!	!	!	!	!LO:LB:g=original	!	!	!
.	.	.	.	2.d	Ut	.	.
=21-	=21-	=21-	=21-	=21-	=21-	=21-	=21-
.	.	2A/	-plum	.	.	1r	.
.	.	.	.	4c	ae-	.	.
!	!	!LO:TX:t=P:problem=kreska pseudotaktowa	!	!	!	!	!
.	.	2G	No-	1B-	-di-	.	.
!	!	!LO:N:xstem:cue	!	!	!	!	!
.	.	4G	.	.	.	1.d	Ut
.	.	4G	-mi-	.	.	.	.
!	!	!LO:TX:t=P:problem=kreska pseudotaktowa	!	!LO:TX:t=P:problem=kreska pseudotaktowa	!	!	!
.	.	2Fny	-ni	2A/	-fi-	.	.
=22-	=22-	=22-	=22-	=22-	=22-	=22-	=22-
2r	.	1E-X	Tu-	2B-	-ca-	.	.
!	!	!	!	!	!	!LO:TX:t=P:problem=kreska pseudotaktowa	!
1G	Ut	.	.	2G	-rem	2c/	ae-
!	!	!LO:TX:t=P:problem=kreska pseudotaktowa	!	!	!	!	!
.	.	1D	-o	1A	Tem-	2d	-di-
!LO:TX:t=P:problem=kreska pseudotaktowa	!	!	!	!	!	!	!
2F	ae-	.	.	.	.	2d	-fi-
=23-	=23-	=23-	=23-	=23-	=23-	=23-	=23-
!	!	!	!	!LO:TX:t=P:problem=kreska pseudotaktowa	!	!	!
2.E-X	-di-	00r	.	1B-	-plum	2.g	-ca-
!	!	!	!	!	!	!LO:TX:t=P:problem=kreska pseudotaktowa	!
4E-	-fi-	.	.	.	.	4g	-rem
2E-	-ca-	.	.	2r	.	2g	Tem-
*	*	*	*	*	*ij	*	*
*	*	*	*	*	*	*custos:e	*
!LO:TX:t=P:problem=kreska pseudotaktowa	!	!	!	!	!	!	!
2D/	-rem	.	.	1B-	Ut	2f	-plum
=24-	=24-	=24-	=24-	=24-	=24-	=24-	=24-
!	!	!	!	!	!	!LO:LB:g=original	!
1C	tem-	.	.	.	.	2.e-	No-
!	!	!	!	!LO:TX:t=P:problem=kreska pseudotaktowa	!	!	!
.	.	.	.	2A/	ae-	.	.
.	.	.	.	.	.	4e-	-mi-
*custos:B	*	*	*	*	*	*	*
!	!	!	!	!	!	!LO:TX:t=P:problem=kreska pseudotaktowa	!
2BB-	-plum	.	.	2B-	-di-	1d	-ni
!LO:LB:g=original	!	!	!	!	!	!	!
2.B-	No-	.	.	2d	-fi-	.	.
=25-	=25-	=25-	=25-	=25-	=25-	=25-	=25-
.	.	00r	.	2d	-ca-	2r	.
4B-	-mi-	.	.	.	.	.	.
!LO:TX:t=P:problem=kreska pseudotaktowa	!	!	!	!LO:TX:t=P:problem=kreska pseudotaktowa	!	!	!
2A	-ni	.	.	2c	-rem	2.f	No-
1G	Tu-	.	.	1B-	Tem-	.	.
.	.	.	.	.	.	4f	-mi-
!	!	!	!	!	!	!LO:TX:t=P:problem=kreska pseudotaktowa	!
.	.	.	.	.	.	2eny	-ni
=26-	=26-	=26-	=26-	=26-	=26-	=26-	=26-
!LO:TX:t=P:problem=kreska pseudotaktowa	!	!	!	!	!	!	!
1F	-o	.	.	2A,<	-plum	2.f	Tu-
*	*	*	*	*	*Xij	*	*
.	.	.	.	2.c	No-	.	.
.	.	.	.	.	.	4e	.
!	!	!	!	!	!	!LO:TX:t=P:problem=kreska pseudotaktowa	!
2r	.	.	.	.	.	1d	.
.	.	.	.	4c	-mi-	.	.
!	!	!	!	!LO:TX:t=P:problem=kreska pseudotaktowa	!	!	!
2.G	No-	.	.	2B-	-ni	.	.
=27-	=27-	=27-	=27-	=27-	=27-	=27-	=27-
!	!	!LO:TX:t=P:problem=kreska pseudotaktowa	!	!	!	!	!
.	.	1r	.	1A	Tu-	2d,<	-o
4G	-mi-	.	.	.	.	.	.
*	*	*	*	*	*	*	*ij
!LO:TX:t=P:problem=kreska pseudotaktowa	!	!	!	!	!	!	!
2F	-ni	.	.	.	.	2.d	No-
*lig	*	*lig	*	*	*	*	*
*	*	*	*	*custos:d	*	*	*
!	!	!	!	!LO:TX:t=P:problem=kreska pseudotaktowa	!	!	!
1E-X	Tu-	1G	No-	1G	-o	.	.
.	.	.	.	.	.	4d	-mi-
!	!	!	!	!	!	!LO:TX:t=P:problem=kreska pseudotaktowa	!
.	.	.	.	.	.	2c/	-ni
=28-	=28-	=28-	=28-	=28-	=28-	=28-	=28-
*	*	*col	*	*	*	*	*
!LO:TX:t=P:problem=kreska pseudotaktowa	!	!	!	!LO:LB:g=original	!	!	!
1D	.	2.A	.	2r	.	4.d	Tu-
.	.	.	.	.	.	8e	.
!	!	!	!	!	!	!LO:TX:t=P:problem=kreska pseudotaktowa	!
.	.	.	.	2.d	No-	2f#X	.
*	*	*Xlig	*	*	*	*	*
.	.	4A/	-mi-	.	.	.	.
*Xlig	*	*Xcol	*	*	*	*	*
!LO:TX:t=P:problem=kreska pseudotaktowa	!	!LO:TX:t=P:problem=kreska pseudotaktowa	!	!	!	!LO:TX:t=P:problem=kreska pseudotaktowa	!
1GG	-o	2B-	-ni	.	.	1g	-o
.	.	.	.	4d	-mi-	.	.
!	!	!	!	!LO:TX:t=P:problem=kreska pseudotaktowa	!	!	!
.	.	2.B-	No-	[y2d	-ni	.	.
=29-	=29-	=29-	=29-	=29-	=29-	=29-	=29-
*	*ij	*	*	*	*	*	*
!	!	!	!	!LO:N:xstem:cue	!	!	!
2.BB-	No-	.	.	4d]	.	1rg	.
.	.	4c	-mi-	4c	.	.	.
!	!	!LO:TX:t=P:problem=kreska pseudotaktowa	!	!	!	!	!
.	.	2d	-noi	4B-	.	.	.
4BB-	-mi-	.	.	4A	.	.	.
*	*	*	*	*	*	*custos:g	*
1C	-ni	4e-X	Tu-	2G	.	2g	No-
.	.	4d	.	.	.	.	.
!	!	!	!	!LO:TX:t=P:problem=kreska pseudotaktowa	!	!LO:LB:g=original	!
.	.	4c	.	2e-X	.	4g	-mi-
!	!	!LO:TX:t=P:problem=kreska pseudotaktowa	!	!	!	!LO:TX:t=P:problem=kreska pseudotaktowa	!
.	.	4B-	.	.	.	4g	-ni
=30-	=30-	=30-	=30-	=30-	=30-	=30-	=30-
!LO:TX:t=P:problem=kreska pseudotaktowa	!	!	!	!	!	!	!
1D	Tu-	4A	.	1d	Tu-	4f#X	Tu-
*	*	*custos:A	*	*	*	*	*
.	.	4B-	.	.	.	2g	.
!	!	!LO:LB:g=original	!	!	!	!	!
.	.	2A/	.	.	.	.	.
!	!	!	!	!	!	!LO:TX:a:t=P:problem=# above	!
.	.	.	.	.	.	4f#X	.
*custos:G	*	*	*	*	*	*	*
!LO:TX:t=P:problem=kreska pseudotaktowa	!	!	!	!	!	!	!
!	!	!	!LO:N:acc=#	!	!	!LO:TX:t=P:problem=kreska pseudotaktowa	!
1GG	-o	1G	-o	1Bn	-o	1g	-o
*	*Xij	*	*	*	*	*	*Xij
=31||	=31||	=31||	=31||	=31||	=31||	=31||	=31||
*M3/1	*	*M3/1	*	*M3/1	*	*M3/1	*
!LO:PB:g=original	!	!	!	!LO:TX:t=P:problem=kreska pseudotaktowa	!	!	!
1.G	Be-	1.B-	Be-	0.r	.	1.d	Be-
2G	-ne-	2B-	-ne-	.	.	2d	-ne-
!LO:TX:t=P:problem=kreska pseudotaktowa	!	!LO:TX:t=P:problem=kreska pseudotaktowa	!	!	!	!LO:TX:t=P:problem=kreska pseudotaktowa	!
1F	-dic	1A	-dic	.	.	1d	-dic
=32-	=32-	=32-	=32-	=32-	=32-	=32-	=32-
0E-X	et	0G	et	1.B-	Be-	0.r	.
.	.	.	.	.	.	.	.
.	.	.	.	2B-	-ne-	.	.
!LO:TX:t=P:problem=kreska pseudotaktowa	!	!LO:TX:t=P:problem=kreska pseudotaktowa	!	!LO:TX:t=P:problem=kreska pseudotaktowa	!	!	!
1C	San-	1A	San-	1c	-dic	.	.
=33-	=33-	=33-	=33-	=33-	=33-	=33-	=33-
*	*	*	*	*	*	*	*ij
1.BB-	-cti-	1.B-	-cti-	0d	et	1.f	Be-
.	.	.	.	.	.	.	.
2BB-	-fi-	2B-	-fi-	.	.	2f	-ne-
!LO:TX:t=P:problem=kreska pseudotaktowa	!	!LO:TX:t=P:problem=kreska pseudotaktowa	!	!LO:TX:t=P:problem=kreska pseudotaktowa	!	!LO:TX:t=P:problem=kreska pseudotaktowa	!
1BB-	-ca	1B-	-ca	1B-	San-	1d	-dic
*	*	*	*	*	*	*	*Xij
=34-	=34-	=34-	=34-	=34-	=34-	=34-	=34-
00.r	.	0.rA	.	1.A	-cti-	0c#X	et
.	.	.	.	.	.	.	.
.	.	.	.	2A/	-fi-	.	.
*	*	*	*	*custos:d	*	*	*
!	!	!	!	!LO:TX:t=P:problem=kreska pseudotaktowa	!	!LO:TX:t=P:problem=kreska pseudotaktowa	!
.	.	.	.	1G	-ca	1d	San-
=35-	=35-	=35-	=35-	=35-	=35-	=35-	=35-
*	*	*	*ij	*	*ij	*	*
!	!	!	!	!LO:TX:t=P:problem=kreska pseudotaktowa	!	!	!
.	.	1.B-	Be-	1.d	Be-	1.f	-cti-
.	.	.	.	.	.	.	.
.	.	.	.	.	.	.	.
.	.	2B-	-ne-	2d	-ne-	2f	-fi-
*	*	*	*	*	*	*custos:e	*
!	!	!LO:TX:t=P:problem=kreska pseudotaktowa	!	!LO:TX:t=P:problem=kreska pseudotaktowa	!	!LO:TX:t=P:problem=kreska pseudotaktowa	!
!	!	!	!	!LO:N:acc=#	!	!	!
.	.	1G	-dic	1Bn	-dic	1g	-ca
=36-	=36-	=36-	=36-	=36-	=36-	=36-	=36-
!LO:TX:t=P:problem=kreska pseudotaktowa	!	!	!	!	!	!LO:LB:g=original	!
0.r	.	0A	et	0c	et	0e	Do-
.	.	.	.	.	.	.	.
*	*	*custos:A	*	*	*	*	*
!	!	!LO:TX:t=P:problem=kreska pseudotaktowa	!	!LO:TX:t=P:problem=kreska pseudotaktowa	!	!LO:TX:t=P:problem=kreska pseudotaktowa	!
.	.	1D	San-	1d	San-	1d	-mum
=37-	=37-	=37-	=37-	=37-	=37-	=37-	=37-
*	*ij	*	*	*	*	*	*
!	!	!LO:LB:g=original	!	!	!	!	!
1.F	Et	1.A	-cti-	1.c	-cti-	0.f	is-
.	.	.	.	.	.	.	.
!	!	!LO:TX:t=P:problem=kreska pseudotaktowa	!	!	!	!	!
.	.	.	.	.	.	.	.
2F	san-	2A/	-fi-	2c	-fi-	.	.
!LO:TX:t=P:problem=kreska pseudotaktowa	!	!	!	!LO:TX:t=P:problem=kreska pseudotaktowa	!	!	!
1F	-cti-	1A	-ca	1c	-ca	.	.
*	*	*	*Xij	*	*Xij	*	*
=38-	=38-	=38-	=38-	=38-	=38-	=38-	=38-
!	!	!	!	!	!	!LO:TX:t=P:problem=kreska pseudotaktowa	!
0BB-	-fi-	1.B-	Be-	1.d	Be-	0.f	-tam
.	.	.	.	.	.	.	.
.	.	2B-	-ne-	2d	-ne-	.	.
1BB-	-ca	1B-	-dic	1d	-dic	.	.
=39||	=39||	=39||	=39||	=39||	=39||	=39||	=39||
*M2/1	*	*M2/1	*	*M2/1	*	*M2/1	*
*met(C|)	*	*met(C|)	*	*met(C|)	*	*met(C|)	*
*lig	*	*	*	*	*	*	*
1C	Be-	2G	et	2c	et	2.g	Do-
!	!	!LO:TX:t=P:problem=kreska pseudotaktowa	!	!LO:TX:t=P:problem=kreska pseudotaktowa	!	!	!
.	.	2c	San-	2e-X	San-	.	.
!	!	!	!	!	!	!LO:TX:t=P:problem=kreska pseudotaktowa	!
.	.	.	.	.	.	4g	-mum
*col	*	*	*	*	*	*	*
2.D/	.	2.A/	-cti-	2d	-cti-	2g	iſ-
!	!	!	!	!LO:TX:t=P:problem=skan uszkodzony, urwana strona	!	!	!
.	.	.	.	4y	-fi-	2f#X	.
*Xlig	*	*	*	*	*	*	*
*custos:GG	*	*	*	*	*	*	*
4D/	-ne-	4A/	-fi-	4y	-ca	.	.
.	.	.	.	.	.	.	.
*Xcol	*	*	*	*	*	*	*
=40-	=40-	=40-	=40-	=40-	=40-	=40-	=40-
!LO:TX:t=P:problem=kreska pseudotaktowa	!	!LO:N:acc=#	!	!	!	!LO:TX:t=P:problem=kreska pseudotaktowa	!
!LO:LB:g=original	!	!	!	!	!	!	!
1GG	-dic	2Bn	-ca	4B-	Do-	1g	-tam
.	.	.	.	4B-	-mum	.	.
*	*	*	*ij	*	*	*	*
!	!	!LO:TX:t=P:problem=kreska pseudotaktowa	!	!	!	!	!
.	.	[y2G	Be-	1A	i-	.	.
!	!	!LO:N:xstem:cue	!	!	!	!	!
2r	.	4G]	.	.	.	2re	.
!	!	!LO:TX:b:t=P:problem=# below	!	!	!	!	!
.	.	4F#X	-ne-	.	.	.	.
!	!	!LO:TX:t=P:problem=kreska pseudotaktowa	!	!LO:TX:t=P:problem=kreska pseudotaktowa	!	!LO:TX:t=P::problem=kreska pseudotaktowa&colon;między nutą a kropką	!
!	!	!	!	!LO:LB:g=original	!	!	!
2.G	et	2G	-dic	2B-	-stam	2.d	Be-
=41-	=41-	=41-	=41-	=41-	=41-	=41-	=41-
.	.	2A/	et	2r	.	.	.
!LO:TX:a:t=P:problem=# above	!	!	!	!	!	!	!
4F#X	san-	.	.	.	.	4d	-ne-
!LO:TX:t=P:problem=kreska pseudotaktowa	!	!	!	!LO:TX:t=P:problem=kreska pseudotaktowa	!	!	!
!	!	!LO:N:acc=#	!	!	!	!	!
2G	-cti-	2Bn	San-	2d	et	4d	-dic
!	!	!	!	!	!	!LO:TX:t=P:problem=przekreślona nuta	!
.	.	.	.	.	.	2g	et
!	!	!	!	!LO:TX:t=P:problem=korekta bemola?	!	!	!
4C	-fi-	4.c	-cti-	2e-X	San-	.	.
4C	-ca	.	.	.	.	4g	san-
.	.	8B	.	.	.	.	.
4.D/	Be-	4.A/	-fi-	4.d	-cti-	4.f#X	-cti-
*	*	*custos:G	*	*	*	*custos:g	*
!	!	!	!	!	!	!LO:TX:t=P:problem=kreska pseudotaktowa	!
8D/	-ne-	8A/	.	8d	-fi-	8f#	-fi-
=42-	=42-	=42-	=42-	=42-	=42-	=42-	=42-
*M3/1	*	*M3/1	*	*M3/1	*	*M3/1	*
!	!	!LO:LB:g=original	!	!LO:N:acc=#	!	!LO:PB:g=original	!
0GG,<	-dic	0G,<	-ca	0Bn,<	-ca	0g,<	-ca
*	*Xij	*	*Xij	*	*	*	*
!LO:TX:t=P:problem=kreska pseudotaktowa	!	!LO:TX:t=P:problem=kreska pseudotaktowa	!	!LO:TX:t=P:problem=kreska pseudotaktowa	!	!LO:TX:t=P:problem=kreska pseudotaktowa	!
1G	ſan-	1G	San-	1Bny	San-	1d	San-
=43-	=43-	=43-	=43-	=43-	=43-	=43-	=43-
1.Fny	-cti-	1.A	-cti-	1.c	-cti-	1.fny	-cti-
2F	-fi-	2A/	-fi-	2c	-fi-	2f	-fi-
!LO:TX:t=P:problem=kreska pseudotaktowa	!	!LO:TX:t=P:problem=kreska pseudotaktowa	!	!LO:TX:t=P:problem=kreska pseudotaktowa	!	!LO:TX:t=P:problem=kreska pseudotaktowa	!
1F	-ca	1A	-ca	1c	-ca	1f	-ca
=44-	=44-	=44-	=44-	=44-	=44-	=44-	=44-
0B-	Do-	00.r	.	0d	Do-	0f	Do-
*custos:A	*	*	*	*	*	*	*
!	!	!	!	!LO:TX:t=P:problem=kreska pseudotaktowa	!	!	!
!	!	!	!	!LO:N:acc=#	!	!LO:TX:t=P:problem=kreska pseudotaktowa	!
1G	-mum	.	.	1Bn	-mum	1g	-mum
=45-	=45-	=45-	=45-	=45-	=45-	=45-	=45-
!LO:LB:g=original	!	!	!	!	!	!	!
0A	is-	.	.	0c	is-	0e	is-
!LO:TX:t=P:problem=kreska pseudotaktowa	!	!	!	!LO:TX:t=P:problem=kreska pseudotaktowa	!	!LO:TX:t=P:problem=kreska pseudotaktowa	!
1F	-tam	.	.	1A	-tam	1f	-tam
=46-	=46-	=46-	=46-	=46-	=46-	=46-	=46-
1G	in	0B-y	Do-	0.r	.	1d	in
1G	sem-	.	.	.	.	1d	Sem-
!LO:TX:t=P:problem=kreska pseudotaktowa	!	!LO:TX:t=P:problem=kreska pseudotaktowa	!	!	!	!LO:TX:t=P:problem=kreska pseudotaktowa	!
1E-X	-pi-	1B-	-mum	.	.	1g	-pi-
=47-	=47-	=47-	=47-	=47-	=47-	=47-	=47-
0F	-ter-	0A	iſ-	1c	in	0f	-ter-
.	.	.	.	1c	Sem-	.	.
*	*	*	*	*custos:B	*	*	*
!	!	!	!	!LO:TX:t=P:problem=kreska pseudotaktowa	!	!	!
!LO:TX:t=P:problem=kreska pseudotaktowa	!	!LO:TX:t=P:problem=kreska pseudotaktowa	!	!	!	!	!
1D	-num	1A	-tam	1d	-pi-	1f	-num
=48-	=48-	=48-	=48-	=48-	=48-	=48-	=48-
!	!	!	!	!LO:LB:g=original	!	!	!
0E-X	DE-	1G	in	0B-y	-ter-	0e-X	DE-
.	.	1G	Sem-	.	.	.	.
*	*	*	*	*	*	*custos:d	*
!	!	!	!	!	!	!LO:TX:t=P:problem=kreska pseudotaktowa	!
!LO:TX:t=P:problem=kreska pseudotaktowa	!	!	!	!LO:TX:t=P:problem=kreska pseudotaktowa	!	!	!
1C	-US	1G	-pi-	1c	-num	1e-	-US
=49-	=49-	=49-	=49-	=49-	=49-	=49-	=49-
!	!	!	!	!	!	!LO:LB:g=original	!
0D	Is-	0F#X	-ter-	0A	DE-	0d	Is-
1D	-ra-	1F#	-num	1A	-US	1d	-ra-
=50||	=50||	=50||	=50||	=50||	=50||	=50||	=50||
*M2/1	*	*M2/1	*	*M2/1	*	*M2/1	*
*met(C|)	*	*met(C|)	*	*met(C|)	*	*met(C|)	*
!LO:TX:t=P:problem=kreska pseudotaktowa	!	!	!	!	!	!LO:TX:t=P:problem=kreska pseudotaktowa	!
1GG	-el	1.G	DE-	2.B-	Is-	1d	-el
!	!	!	!	!LO:TX:t=P:problem=kreska pseudotaktowa	!	!	!
.	.	.	.	4B-	-ra-	.	.
2.E-X	DE-	.	.	2B-	-el	1r	.
.	.	2G	-US	1e-X	DE-	.	.
4D/	.	.	.	.	.	.	.
=51-	=51-	=51-	=51-	=51-	=51-	=51-	=51-
!	!	!LO:N:vis=0.	!	!	!	!	!
2C	-US	0G	Isra-	.	.	2c	DE-
!LO:TX:t=P:problem=kreska pseudotaktowa	!	!	!	!LO:TX:t=P:problem=kreska pseudotaktowa	!	!LO:TX:t=P:problem=kreska pseudotaktowa	!
!LO:TX:b:t=P:problem=# below	!	!	!	!	!	!	!
!LO:N:acc=#	!	!	!	!	!	!	!
2BBn	Is-	.	.	2d	-US	2d	-US
2.C	.	.	.	2.c	Is-	2.e-X	Is-
4C	-ra-	.	.	4c	-ra-	4e-	-ra-
=52-	=52-	=52-	=52-	=52-	=52-	=52-	=52-
!	!	!	!	!LO:N:acc=#	!	!	!
0GG;	-el	0G;;	-el	0Bn;;	-el.	0d;;	-el.
!LO:LB:g=original	!	!LO:PB:g=original	!	!LO:LB:g=original	!	!LO:LB:g=original	!
=-	=-	=-	=-	=||	=||	=||	=||
*-	*-	*-	*-	*-	*-	*-	*-
!!!system-decoration: [(s1,s2,s3,s4)]
!!!RDF**kern: < = below
!!!RDF**kern: > = above
!!!ENC: Marta Chmielewska
!!!END: 2021-03-29
!!!ENC: Andrzej Gręziak
!!!END: 2021-03-19
!!!YEC: Copyright 2022 Narodowy Instytut Fryderyka Chopina (https://polishscores.org)
!!!YEM: Licence CC BY 4.0 (https://creativecommons.org/licenses/by/4.0)
